X: 19782
T: Jenny's Welcome To Charlie
R: reel
M: 4/4
K: Dmixolydian
|:DEDF AD (3DDD|Bc~-c2 dc~-c2|D2 (3DDD AD{G}ED|EGcG ECCE|
DEDF AD{G}ED|Bc~-c2 d2cd|ec~-c2 AGEG|1 (3GGG cG EFGE:|2 (3GGG cG EFGe||
=f3f efed|cA (3AAA cAGe|=fedg ed^cd|ea~-a2 edde|
ef2d eged|dcAB {d}cBcd|ec~-c2 AGEG|(3GGG cG EFGe|
=f3g e2ed|cA (3AAA cAGe|=fedg edcd|ea~-a2 edde|
fgaf gfed|dcAF GAcd|ecdc AGEG|(3GGG cG EFGE|
|:D2~a2-agef|~g3a gedg|ea-~a2 aged|eaag edde|
agab agef|~g3a gedB|GAcd ecdc|AFGF ECC2:|
|:Ad-~d2 dcAB|~c2Bd cAGc|Addc ~d2 cd|eaag eddc|
dggf dcAB|~[E3c3]d cAGE|DEFA dBcB|AFGF ECC2:|

